src/assets/icons/pul-icon-calendar.svg

<!-- Generated by IcoMoon.io -->
<svg version="1.1" xmlns="http://www.w3.org/2000/svg" width="16" height="16" viewBox="0 0 16 16">
<title>calendar</title>
<path d="M15.667 1.333h-2.333v-1c0-0.184-0.149-0.333-0.333-0.333h-2c-0.184 0-0.333 0.149-0.333 0.333v1h-5.333v-1c0-0.184-0.149-0.333-0.333-0.333h-2c-0.184 0-0.333 0.149-0.333 0.333v1h-2.333c-0.184 0-0.333 0.149-0.333 0.333v14c0 0.184 0.149 0.333 0.333 0.333h15.333c0.184 0 0.333-0.149 0.333-0.333v-14c0-0.184-0.149-0.333-0.333-0.333zM11.333 0.667h1.333v2h-1.333v-2zM3.333 0.667h1.333v2h-1.333v-2zM2.667 2v1c0 0.184 0.149 0.333 0.333 0.333h2c0.184 0 0.333-0.149 0.333-0.333v-1h5.333v1c0 0.184 0.149 0.333 0.333 0.333h2c0.184 0 0.333-0.149 0.333-0.333v-1h2v2.667h-14.667v-2.667h2zM0.667 15.333v-10h14.667v10h-14.667z"></path>
<path d="M14.333 8c0.184 0 0.333-0.149 0.333-0.333s-0.149-0.333-0.333-0.333h-3v-1c0-0.184-0.149-0.333-0.333-0.333s-0.333 0.149-0.333 0.333v1h-2.667v-1c0-0.184-0.149-0.333-0.333-0.333s-0.333 0.149-0.333 0.333v1h-2.667v-1c0-0.184-0.149-0.333-0.333-0.333s-0.333 0.149-0.333 0.333v1h-2.333c-0.184 0-0.333 0.149-0.333 0.333s0.149 0.333 0.333 0.333h2.333v2h-2.333c-0.184 0-0.333 0.149-0.333 0.333s0.149 0.333 0.333 0.333h2.333v2h-2.333c-0.184 0-0.333 0.149-0.333 0.333s0.149 0.333 0.333 0.333h2.333v1c0 0.184 0.149 0.333 0.333 0.333s0.333-0.149 0.333-0.333v-1h2.667v1c0 0.184 0.149 0.333 0.333 0.333s0.333-0.149 0.333-0.333v-1h2.667v1c0 0.184 0.149 0.333 0.333 0.333s0.333-0.149 0.333-0.333v-1h3c0.184 0 0.333-0.149 0.333-0.333s-0.149-0.333-0.333-0.333h-3v-2h3c0.184 0 0.333-0.149 0.333-0.333s-0.149-0.333-0.333-0.333h-3v-2h3zM4.667 8h2.667v2h-2.667v-2zM4.667 12.667v-2h2.667v2h-2.667zM10.667 12.667h-2.667v-2h2.667v2zM10.667 10h-2.667v-2h2.667v2z"></path>
</svg>

<svg xmlns="http://www.w3.org/2000/svg" viewBox="0 0 16 16">
    <path d="M15.667 1.333h-2.333v-1A.333.333 0 0 0 13.001 0h-2a.333.333 0 0 0-.333.333v1H5.335v-1A.333.333 0 0 0 5.002 0h-2a.333.333 0 0 0-.333.333v1H.336a.333.333 0 0 0-.333.333v14c0 .184.149.333.333.333h15.333a.333.333 0 0 0 .333-.333v-14a.333.333 0 0 0-.333-.333zM11.333.667h1.333v2h-1.333v-2zm-8 0h1.333v2H3.333v-2zM2.667 2v1c0 .184.149.333.333.333h2A.333.333 0 0 0 5.333 3V2h5.333v1c0 .184.149.333.333.333h2A.333.333 0 0 0 13.332 3V2h2v2.667H.665V2h2zm-2 13.333v-10h14.667v10H.667z"/>
    <path d="M14.333 8a.333.333 0 1 0 0-.666h-3v-1a.333.333 0 1 0-.666 0v1H8v-1a.333.333 0 1 0-.666 0v1H4.667v-1a.333.333 0 1 0-.666 0v1H1.668a.333.333 0 1 0 0 .666h2.333v2H1.668a.333.333 0 1 0 0 .666h2.333v2H1.668a.333.333 0 1 0 0 .666h2.333v1a.333.333 0 1 0 .666 0v-1h2.667v1a.333.333 0 1 0 .666 0v-1h2.667v1a.333.333 0 1 0 .666 0v-1h3a.333.333 0 1 0 0-.666h-3v-2h3a.333.333 0 1 0 0-.666h-3V8h3zM4.667 8h2.667v2H4.667V8zm0 4.667v-2h2.667v2H4.667zm6 0H8v-2h2.667v2zm0-2.667H8V8h2.667v2z"/>
</svg>
